X:0423
M:C
L:1/8
Q:1/4=72
K:G
 G>A|    B2      g>e  d<BA>B      | {A}G2 d>e ({e}d2)
 G>A|{GA}B2      g>e  d<BA>G      |{GA}B2 e>f     e2||
 g>a|   (g/a/b) Tag  (e/d/e/f/) gG|{GA}B2 e>f     e2|]

